X: 19191
T: Isabella's
R: hornpipe
M: 4/4
K: Gmajor
|:dc|B2 G2 G2 dc|BGBd gdcB|c2 A2 A2 ag|f2 d2 d2 dc|
B2 G2 G2 d2|BGBd g2 B2|ABcA dcBA|B2 G2 G2:|
|:d2|g2 dB g2 dB|fefa g2 d2|g2 dB g2 fg|a2 A2 A2 d2|
g2 dB g2dB|gfga g2 B2|ABcA dcBA|B2 G2 G2:|

